assets/svg/upcoming-rides.svg

<svg xmlns="http://www.w3.org/2000/svg" width="21" height="23.778">
    <path d="M16.994 23.778a1.068 1.068 0 0 1-1.076-1.078v-1.651H5.081V22.7A1.068 1.068 0 0 1 4 23.778H2.2A1.068 1.068 0 0 1 1.126 22.7v-5.2a13.69 13.69 0 0 1 .325-3.029h-.375A1.068 1.068 0 0 1 0 13.391v-.626a1.068 1.068 0 0 1 1.076-1.076h1.377l.876-2.753a3.459 3.459 0 0 1 1.952-2.1 5.123 5.123 0 0 1-.2-1.4 5.431 5.431 0 1 1 10.863 0 5.266 5.266 0 0 1-.2 1.4 3.391 3.391 0 0 1 1.952 2.1l.876 2.753h1.376A1.039 1.039 0 0 1 21 12.79v.6a1.068 1.068 0 0 1-1.076 1.076h-.375a15.367 15.367 0 0 1 .325 3.029V22.7a1.068 1.068 0 0 1-1.074 1.078Zm-.5-8.06-2.027.325a.666.666 0 0 0-.551.526l-.15.7a.674.674 0 0 0 .651.8h2.177a.646.646 0 0 0 .651-.651h.025v-1.049a.67.67 0 0 0-.66-.662.63.63 0 0 0-.116.011ZM3.8 16.394v1.026a.646.646 0 0 0 .651.651h2.182a.684.684 0 0 0 .676-.776l-.15-.7a.7.7 0 0 0-.551-.526l-2.027-.325a.63.63 0 0 0-.116-.011.67.67 0 0 0-.665.661Zm1.581-6.808-1.026 3.229a.235.235 0 0 0 .225.3h11.864a.235.235 0 0 0 .225-.3l-1.026-3.229a1.312 1.312 0 0 0-.876-.826 5.4 5.4 0 0 1-8.51 0 1.314 1.314 0 0 0-.876.826Zm1.027-4.155a4.1 4.1 0 1 0 4.1-4.1 4.123 4.123 0 0 0-4.1 4.1Zm4.1.651a.641.641 0 0 1-.651-.626V3.1a.651.651 0 1 1 1.3 0v1.681h1.251a.663.663 0 0 1 .651.651.646.646 0 0 1-.651.651Z" fill="#2fb279"/>
</svg>

<svg xmlns="http://www.w3.org/2000/svg" width="21" height="23.778" viewBox="0 0 21 23.778">
  <path id="upcoming-rides" d="M16.994,23.778A1.068,1.068,0,0,1,15.918,22.7V21.049H5.081V22.7A1.068,1.068,0,0,1,4,23.778H2.2A1.068,1.068,0,0,1,1.126,22.7V17.5a13.69,13.69,0,0,1,.325-3.029H1.076A1.068,1.068,0,0,1,0,13.391v-.626a1.068,1.068,0,0,1,1.076-1.076H2.453l.876-2.753a3.459,3.459,0,0,1,1.952-2.1,5.123,5.123,0,0,1-.2-1.4,5.431,5.431,0,1,1,10.863,0,5.266,5.266,0,0,1-.2,1.4,3.391,3.391,0,0,1,1.952,2.1l.876,2.753h1.376A1.039,1.039,0,0,1,21,12.79v.6a1.068,1.068,0,0,1-1.076,1.076h-.375a15.367,15.367,0,0,1,.325,3.029V22.7A1.068,1.068,0,0,1,18.8,23.778Zm-.5-8.06-2.027.325a.666.666,0,0,0-.551.526l-.15.7a.674.674,0,0,0,.651.8h2.177a.646.646,0,0,0,.651-.651h.025V16.369a.67.67,0,0,0-.66-.662A.63.63,0,0,0,16.494,15.718ZM3.8,16.394V17.42a.646.646,0,0,0,.651.651H6.633a.684.684,0,0,0,.676-.776l-.15-.7a.7.7,0,0,0-.551-.526l-2.027-.325a.63.63,0,0,0-.116-.011A.67.67,0,0,0,3.8,16.394ZM5.381,9.586,4.355,12.815h0a.235.235,0,0,0,.225.3H16.444a.235.235,0,0,0,.225-.3L15.643,9.586a1.312,1.312,0,0,0-.876-.826,5.4,5.4,0,0,1-8.51,0A1.314,1.314,0,0,0,5.381,9.586ZM6.408,5.431a4.1,4.1,0,1,0,4.1-4.1A4.123,4.123,0,0,0,6.408,5.431Zm4.1.651h0a.641.641,0,0,1-.651-.626V3.1a.651.651,0,1,1,1.3,0V4.781h1.251a.663.663,0,0,1,.651.651.646.646,0,0,1-.651.651Z" fill="#2fb279"/>
</svg>
